!!! OTL: Berkowitz256
!!! Chapter: 1
!!! Section: II
!!! Page: 59
!!! Mode: 
!!! Encoder: DJB
**kern
*staff1
*I"Piano
=1-
*clefC4
*k[b-e-a-d-]
*A-:
*M4/4
4.F/
8G/
8A-/L
8G/
8F/
8A-/J
=2
4G/
4En/
4C/
4E/
=3
4.G/
8A-\
8B-\L
8B-\
8A-\
8B-\J
=4
2c\
4r
8Bn\L
8c\J
=5
8d-\L
8c\
8B-\
8A-\J
4G/
8A-\L
8B-\J
=6
8c\L
8B-\
8A-\
8G\J
4.F/
8A-\
=7
!!linebreak:original
4G/
4Dn/
4En/
4C/
=8
2G/
4F/
4r
==
*-
